;FLAVOR:Marlin
;TIME:3225
;Filament used: 2.84m
;Layer height: 0.2
;MINX:83.651
;MINY:80.994
;MINZ:0.3
;MAXX:138.376
;MAXY:139.161
;MAXZ:43.7
;Generated with Cura_SteamEngine 5.2.1
M140 S60
M105
M190 S60
M104 S230
M105
M109 S230
M82 ;absolute extrusion mode
G28 ;Home
G1 Z15.0 F6000 ;Move the platform down 15mm
;Prime the extruder
G92 E0
G1 F200 E3
G92 E0
G92 E0
G92 E0
G1 F1500 E-6.5
;LAYER_COUNT:218
;LAYER:0
M107
G0 F2400 X90.908 Y88.602 Z0.3
;TYPE:SKIRT
G1 F1500 E0
G1 F1200 X91.637 Y87.926 E0.0496
G1 X91.722 Y87.833 E0.05589
G1 X92.625 Y86.957 E0.11865
G1 X93.582 Y86.14 E0.18143
G1 X94.589 Y85.385 E0.24422
G1 X95.642 Y84.696 E0.307
G1 X96.736 Y84.074 E0.36979
G1 X97.676 Y83.605 E0.4222
G1 X98.956 Y83.048 E0.49184
G1 X100.14 Y82.62 E0.55465
G1 X101.68 Y82.17 E0.6347
G1 X102.9 Y81.862 E0.69747
G1 X103.598 Y81.722 E0.73299
G1 X104.124 Y81.626 E0.75966
G1 X104.48 Y81.543 E0.7779
G1 X106.251 Y81.269 E0.86731
G1 X106.957 Y81.192 E0.90274
G1 X107.319 Y81.137 E0.92101
G1 X108.573 Y81.026 E0.98381
G1 X109.679 Y80.995 E1.03901
G1 X112.316 Y80.994 E1.17057
G1 X113.574 Y81.034 E1.23337
G1 X114.827 Y81.153 E1.29616
G1 X115.115 Y81.199 E1.31071
G1 X115.723 Y81.264 E1.34122
G1 X116.97 Y81.437 E1.40403
G1 X117.957 Y81.639 E1.45429
G1 X118.381 Y81.715 E1.47578
G1 X119.612 Y81.977 E1.53857
G1 X120.733 Y82.284 E1.59656
G1 X121.94 Y82.64 E1.65934
G1 X123.122 Y83.073 E1.72214
G1 X124.36 Y83.614 E1.78955
G1 X125.635 Y84.266 E1.86099
G1 X126.717 Y84.91 E1.92381
G1 X127.755 Y85.621 E1.98658
G1 X128.747 Y86.396 E2.04938
G1 X129.686 Y87.233 E2.11214
G1 X130.361 Y87.915 E2.16001
G1 X130.843 Y88.345 E2.19224
G1 X131.727 Y89.241 E2.25503
G1 X132.552 Y90.191 E2.31781
G1 X133.315 Y91.192 E2.3806
G1 X134.013 Y92.239 E2.44338
G1 X134.643 Y93.328 E2.50615
G1 X135.456 Y95.009 E2.5993
G1 X136.018 Y96.429 E2.6755
G1 X136.405 Y97.626 E2.73826
G1 X136.716 Y98.845 E2.80102
G1 X136.867 Y99.675 E2.84311
G1 X137.155 Y100.991 E2.91032
G1 X137.244 Y101.308 E2.92675
G1 X137.375 Y101.924 E2.95817
G1 X137.516 Y102.39 E2.98246
G1 X137.802 Y103.616 E3.04526
G1 X138.082 Y105.456 E3.13812
G1 X138.294 Y107.462 E3.23876
G1 X138.353 Y108.7 E3.30059
G1 X138.376 Y110.166 E3.37374
G1 X138.332 Y111.821 E3.45634
G1 X138.232 Y113.291 E3.52984
G1 X138.107 Y114.543 E3.59262
G1 X137.931 Y115.534 E3.64283
G1 X137.94 Y115.536 E3.64329
G1 X137.723 Y116.794 E3.70698
G1 X137.47 Y118.026 E3.76973
G1 X137.139 Y119.24 E3.8325
G1 X136.769 Y120.476 E3.89687
G1 X136.134 Y122.236 E3.99022
G1 X135.634 Y123.391 E4.05301
G1 X135.062 Y124.512 E4.1158
G1 X134.819 Y124.932 E4.14001
G1 X134.38 Y125.827 E4.18974
G1 X133.755 Y126.92 E4.25256
G1 X133.062 Y127.97 E4.31532
G1 X132.304 Y128.974 E4.37808
G1 X131.484 Y129.929 E4.44088
G1 X130.569 Y130.867 E4.50626
G1 X129.564 Y131.777 E4.5739
G1 X128.58 Y132.561 E4.63667
G1 X127.548 Y133.281 E4.69944
G1 X126.434 Y133.957 E4.76445
G1 X126.002 Y134.287 E4.79158
G1 X124.45 Y135.315 E4.88445
G1 X123.712 Y135.728 E4.92664
G1 X123.39 Y135.932 E4.94566
G1 X122.287 Y136.537 E5.00842
G1 X121.147 Y137.071 E5.07123
G1 X119.976 Y137.531 E5.134
G1 X119.198 Y137.788 E5.17487
G1 X118.782 Y137.95 E5.19715
G1 X117.583 Y138.333 E5.25994
G1 X116.362 Y138.639 E5.32274
G1 X115.124 Y138.866 E5.38554
G1 X113.875 Y139.015 E5.44829
G1 X112.067 Y139.089 E5.53857
G1 X111.82 Y139.114 E5.55095
G1 X110.562 Y139.161 E5.61376
G1 X109.304 Y139.127 E5.67654
G1 X108.2 Y139.031 E5.73183
G1 X107.574 Y138.959 E5.76327
G1 X106.329 Y138.776 E5.82605
G1 X105.098 Y138.514 E5.88884
G1 X103.886 Y138.174 E5.95164
G1 X102.611 Y137.722 E6.01913
G1 X101.778 Y137.442 E6.06297
G1 X100.613 Y136.966 E6.12576
G1 X99.48 Y136.418 E6.18855
G1 X98.385 Y135.798 E6.25133
G1 X98.277 Y135.728 E6.25775
G1 X97.784 Y135.456 E6.28584
G1 X96.585 Y134.693 E6.35674
G1 X95.395 Y133.841 E6.42976
G1 X94.628 Y133.386 E6.47425
G1 X93.589 Y132.677 E6.53701
G1 X92.597 Y131.902 E6.59981
G1 X91.447 Y130.871 E6.67687
G1 X90.494 Y129.891 E6.74506
G1 X89.676 Y128.934 E6.80787
G1 X88.92 Y127.928 E6.87066
G1 X88.23 Y126.876 E6.93342
G1 X87.608 Y125.782 E6.99621
G1 X87.159 Y124.863 E7.04724
G1 X86.748 Y124.137 E7.08886
G1 X86.2 Y123.004 E7.15165
G1 X85.726 Y121.838 E7.21444
G1 X85.5 Y121.21 E7.24774
G1 X84.926 Y119.434 E7.34086
G1 X84.538 Y118.027 E7.41367
G1 X84.292 Y116.833 E7.47449
G1 X84.069 Y115.548 E7.53956
G1 X83.965 Y114.994 E7.56768
G1 X83.811 Y113.745 E7.63047
G1 X83.738 Y112.545 E7.69045
G1 X83.651 Y109.675 E7.8337
G1 X83.653 Y108.417 E7.89646
G1 X83.735 Y107.161 E7.95926
G1 X83.823 Y106.439 E7.99554
G1 X83.925 Y105.457 E8.0448
G1 X84.095 Y104.21 E8.10759
G1 X84.344 Y102.977 E8.17034
G1 X84.62 Y101.952 E8.2233
G1 X84.904 Y100.786 E8.28317
G1 X85.072 Y99.966 E8.32493
G1 X85.127 Y99.764 E8.33538
G1 X85.245 Y99.09 E8.36952
G1 X85.541 Y97.867 E8.43229
G1 X85.913 Y96.665 E8.49507
G1 X86.552 Y95.027 E8.58279
G1 X87.201 Y93.655 E8.65851
G1 X87.811 Y92.554 E8.7213
G1 X88.489 Y91.494 E8.78408
G1 X89.234 Y90.479 E8.8469
G1 X90.041 Y89.514 E8.90966
G1 X90.908 Y88.602 E8.97243
G0 F2400 X91.243 Y88.833
G1 F1200 X91.915 Y88.217 E9.01792
G1 X92.019 Y88.102 E9.02565
G1 X92.913 Y87.236 E9.08775
G1 X93.862 Y86.428 E9.14993
G1 X94.86 Y85.683 E9.21206
G1 X95.904 Y85.004 E9.2742
G1 X96.99 Y84.393 E9.33636
G1 X97.974 Y83.912 E9.39101
G1 X99.116 Y83.415 E9.45314
G1 X100.288 Y82.992 E9.51531
G1 X101.827 Y82.544 E9.59527
G1 X103.035 Y82.242 E9.6574
G1 X104.197 Y82.02 E9.71642
G1 X104.583 Y81.93 E9.73619
G1 X106.294 Y81.666 E9.82256
G1 X107.032 Y81.586 E9.8596
G1 X107.38 Y81.533 E9.87716
G1 X108.621 Y81.424 E9.93931
G1 X109.68 Y81.395 E9.99216
G1 X112.317 Y81.394 E10.12373
G1 X113.562 Y81.434 E10.18587
G1 X114.802 Y81.553 E10.24802
G1 X115.062 Y81.595 E10.26116
G1 X115.681 Y81.661 E10.29222
G1 X116.915 Y81.833 E10.35438
G1 X117.884 Y82.032 E10.40373
G1 X118.31 Y82.109 E10.42533
G1 X119.529 Y82.368 E10.4875
G1 X120.252 Y82.572 E10.52498
G1 X120.632 Y82.671 E10.54457
G1 X121.826 Y83.024 E10.60669
G1 X122.996 Y83.453 E10.66886
G1 X124.194 Y83.978 E10.73411
G1 X125.453 Y84.623 E10.80469
G1 X126.523 Y85.261 E10.86684
G1 X127.55 Y85.966 E10.92899
G1 X128.529 Y86.736 E10.99113
G1 X129.457 Y87.566 E11.05324
G1 X130.079 Y88.2 E11.09755
G1 X130.585 Y88.652 E11.1314
G1 X131.459 Y89.541 E11.1936
G1 X132.273 Y90.483 E11.25571
G1 X133.026 Y91.476 E11.31789
G1 X133.713 Y92.515 E11.38003
G1 X134.332 Y93.595 E11.44213
G1 X135.093 Y95.177 E11.52972
G1 X135.645 Y96.576 E11.60475
G1 X136.028 Y97.761 E11.66688
G1 X136.334 Y98.969 E11.72905
G1 X136.481 Y99.782 E11.77027
G1 X136.767 Y101.09 E11.83707
G1 X136.862 Y101.428 E11.85458
G1 X136.988 Y102.025 E11.88502
G1 X137.133 Y102.506 E11.91009
G1 X137.415 Y103.719 E11.97222
G1 X137.684 Y105.498 E12.06198
G1 X137.897 Y107.506 E12.16272
G1 X137.953 Y108.707 E12.22271
G1 X137.976 Y110.173 E12.29586
G1 X137.933 Y111.794 E12.37676
G1 X137.833 Y113.264 E12.45026
G1 X137.709 Y114.503 E12.51239
G1 X137.537 Y115.466 E12.56119
G1 X137.546 Y115.468 E12.56165
G1 X137.329 Y116.726 E12.62534
G1 X137.078 Y117.946 E12.68748
G1 X136.749 Y119.147 E12.74961
G1 X136.385 Y120.362 E12.81289
G1 X135.748 Y122.125 E12.90641
G1 X135.251 Y123.267 E12.96854
G1 X134.681 Y124.375 E13.03071
G1 X134.465 Y124.747 E13.05217
G1 X134.021 Y125.651 E13.10242
G1 X133.401 Y126.732 E13.16459
G1 X132.714 Y127.77 E13.22669
G1 X131.961 Y128.763 E13.28886
G1 X131.146 Y129.705 E13.35101
G1 X130.219 Y130.644 E13.41684
G1 X129.296 Y131.48 E13.47897
G1 X128.321 Y132.255 E13.5411
G1 X127.298 Y132.966 E13.60326
G1 X126.226 Y133.613 E13.66573
G1 X125.738 Y133.984 E13.69631
G1 X125.251 Y134.312 E13.7256
G1 X124.209 Y134.993 E13.78771
G1 X123.497 Y135.391 E13.8284
G1 X123.165 Y135.601 E13.848
G1 X122.072 Y136.198 E13.91013
G1 X120.943 Y136.723 E13.97225
G1 X119.782 Y137.175 E14.03441
G1 X119.069 Y137.409 E14.07185
G1 X118.636 Y137.578 E14.09504
G1 X117.449 Y137.955 E14.15717
G1 X116.24 Y138.256 E14.21933
G1 X115.015 Y138.478 E14.28144
G1 X113.777 Y138.622 E14.34362
G1 X112.181 Y138.689 E14.42332
G1 X111.779 Y138.716 E14.44342
G1 X110.535 Y138.761 E14.50552
G1 X109.29 Y138.726 E14.56766
G1 X108.245 Y138.634 E14.62
G1 X107.619 Y138.562 E14.65143
G1 X106.387 Y138.38 E14.71357
G1 X105.169 Y138.119 E14.77571
G1 X103.97 Y137.781 E14.83786
G1 X102.747 Y137.346 E14.90262
G1 X101.906 Y137.063 E14.94689
G1 X100.753 Y136.591 E15.00905
G1 X99.633 Y136.046 E15.07119
G1 X98.55 Y135.43 E15.13335
G1 X98.466 Y135.375 E15.13836
G1 X97.977 Y135.105 E15.16623
G1 X96.663 Y134.26 E15.24417
G1 X95.638 Y133.521 E15.30721
G1 X94.821 Y133.036 E15.35461
G1 X93.794 Y132.331 E15.41676
G1 X92.814 Y131.563 E15.47888
G1 X91.723 Y130.581 E15.55211
G1 X90.781 Y129.612 E15.61953
G1 X89.972 Y128.664 E15.68171
G1 X89.226 Y127.667 E15.74383
G1 X88.545 Y126.624 E15.80598
G1 X87.933 Y125.539 E15.86812
G1 X87.519 Y124.689 E15.91529
G1 X87.097 Y123.94 E15.95818
G1 X86.555 Y122.818 E16.02035
G1 X86.087 Y121.663 E16.08252
G1 X85.87 Y121.058 E16.11459
G1 X85.312 Y119.329 E16.20523
G1 X84.919 Y117.897 E16.27931
G1 X84.686 Y116.765 E16.33697
G1 X84.464 Y115.48 E16.40203
G1 X84.358 Y114.919 E16.43052
G1 X84.207 Y113.683 E16.49264
G1 X84.138 Y112.533 E16.55012
G1 X84.051 Y109.663 E16.69337
G1 X84.053 Y108.417 E16.75553
G1 X84.135 Y107.174 E16.81768
G1 X84.223 Y106.455 E16.85382
G1 X84.323 Y105.499 E16.90177
G1 X84.492 Y104.264 E16.96396
G1 X84.739 Y103.044 E17.02606
G1 X84.98 Y102.208 E17.06947
G1 X85.012 Y102.028 E17.07859
G1 X85.294 Y100.877 E17.13771
G1 X85.467 Y100.034 E17.18065
G1 X85.52 Y99.841 E17.19063
G1 X85.64 Y99.16 E17.22513
G1 X85.933 Y97.949 E17.28729
G1 X86.304 Y96.76 E17.34943
G1 X86.919 Y95.183 E17.43388
G1 X87.563 Y93.826 E17.50882
G1 X88.168 Y92.737 E17.57097
G1 X88.841 Y91.689 E17.63311
G1 X89.58 Y90.686 E17.69526
G1 X90.382 Y89.733 E17.7574
G1 X91.243 Y88.833 E17.81954
G0 F2400 X91.578 Y89.066
G1 F1200 X92.188 Y88.511 E17.86069
G1 X92.315 Y88.371 E17.87012
G1 X93.201 Y87.515 E17.93158
G1 X94.141 Y86.717 E17.9931
G1 X95.131 Y85.982 E18.05461
G1 X96.166 Y85.313 E18.1161
G1 X97.243 Y84.713 E18.1776
G1 X98.145 Y84.273 E18.22767
G1 X99.276 Y83.782 E18.28919
G1 X100.436 Y83.365 E18.35068
G1 X101.466 Y83.063 E18.40423
G1 X101.973 Y82.918 E18.43054
G1 X103.741 Y82.509 E18.52108
G1 X104.29 Y82.409 E18.54892
G1 X104.687 Y82.317 E18.56925
G1 X106.337 Y82.064 E18.65253
G1 X107.072 Y81.984 E18.68942
G1 X107.44 Y81.928 E18.70799
G1 X108.668 Y81.822 E18.76948
G1 X109.68 Y81.795 E18.81999
G1 X112.317 Y81.794 E18.95155
G1 X113.549 Y81.834 E19.01305
G1 X114.776 Y81.953 E19.07455
G1 X115.029 Y81.994 E19.08733
G1 X115.638 Y82.059 E19.11789
G1 X116.859 Y82.23 E19.1794
G1 X117.757 Y82.415 E19.22514
G1 X118.24 Y82.502 E19.24963
G1 X119.445 Y82.76 E19.31111
G1 X120.122 Y82.951 E19.3462
G1 X120.531 Y83.058 E19.36729
G1 X121.713 Y83.408 E19.42879
G1 X122.87 Y83.834 E19.49031
G1 X124.025 Y84.339 E19.5532
G1 X125.27 Y84.979 E19.62304
G1 X126.329 Y85.611 E19.68456
G1 X127.344 Y86.311 E19.74608
G1 X128.311 Y87.075 E19.80756
G1 X129.227 Y87.9 E19.86906
G1 X129.787 Y88.475 E19.90911
G1 X130.328 Y88.96 E19.94536
G1 X131.191 Y89.84 E20.00685
G1 X131.995 Y90.774 E20.06833
G1 X132.736 Y91.759 E20.12983
G1 X133.413 Y92.79 E20.19136
G1 X134.021 Y93.862 E20.25285
G1 X134.729 Y95.343 E20.33474
G1 X135.273 Y96.723 E20.40875
G1 X135.651 Y97.896 E20.47023
G1 X135.951 Y99.092 E20.53175
G1 X136.095 Y99.89 E20.5722
G1 X136.118 Y99.97 E20.57636
G1 X136.379 Y101.188 E20.6385
G1 X136.479 Y101.548 E20.65714
G1 X136.601 Y102.129 E20.68676
G1 X136.749 Y102.622 E20.71244
G1 X137.028 Y103.822 E20.77391
G1 X137.286 Y105.539 E20.86053
G1 X137.499 Y107.549 E20.96137
G1 X137.553 Y108.713 E21.01951
G1 X137.576 Y110.179 E21.09265
G1 X137.534 Y111.767 E21.17191
G1 X137.434 Y113.237 E21.24542
G1 X137.311 Y114.463 E21.30689
G1 X137.144 Y115.399 E21.35432
G1 X137.151 Y115.4 E21.35468
G1 X136.934 Y116.658 E21.41836
G1 X136.686 Y117.865 E21.47984
G1 X136.359 Y119.054 E21.54136
G1 X136.001 Y120.248 E21.60355
G1 X135.362 Y122.012 E21.69715
G1 X134.867 Y123.142 E21.7587
G1 X134.3 Y124.236 E21.82018
G1 X134.106 Y124.57 E21.83945
G1 X133.661 Y125.475 E21.88976
G1 X133.047 Y126.543 E21.95122
G1 X132.365 Y127.57 E22.01273
G1 X131.618 Y128.551 E22.07424
G1 X130.809 Y129.48 E22.1357
G1 X129.941 Y130.357 E22.19726
G1 X129.027 Y131.184 E22.25876
G1 X128.061 Y131.95 E22.32026
G1 X127.048 Y132.651 E22.38172
G1 X126.009 Y133.275 E22.44219
G1 X125.475 Y133.68 E22.47563
G1 X125.001 Y133.999 E22.50413
G1 X123.968 Y134.672 E22.56564
G1 X123.267 Y135.062 E22.60566
G1 X122.94 Y135.269 E22.62497
G1 X121.857 Y135.858 E22.68647
G1 X120.738 Y136.375 E22.74797
G1 X119.588 Y136.819 E22.80947
G1 X118.931 Y137.033 E22.84395
G1 X118.491 Y137.205 E22.86752
G1 X117.315 Y137.577 E22.92905
G1 X116.119 Y137.873 E22.99052
G1 X114.905 Y138.09 E23.05205
G1 X113.68 Y138.228 E23.11355
G1 X112.18 Y138.289 E23.18845
G1 X111.74 Y138.318 E23.21045
G1 X110.508 Y138.361 E23.27195
G1 X109.275 Y138.324 E23.33349
G1 X108.291 Y138.237 E23.38277
G1 X107.665 Y138.165 E23.41421
G1 X106.446 Y137.984 E23.47569
G1 X105.24 Y137.725 E23.53723
G1 X104.055 Y137.388 E23.5987
G1 X102.868 Y136.965 E23.66156
G1 X102.033 Y136.683 E23.70553
G1 X100.893 Y136.215 E23.76702
G1 X99.785 Y135.674 E23.82853
G1 X98.656 Y135.023 E23.89355
G1 X98.17 Y134.755 E23.92124
G1 X96.833 Y133.892 E24.00063
G1 X95.891 Y133.207 E24.05874
G1 X95.015 Y132.685 E24.10961
G1 X94 Y131.986 E24.1711
G1 X93.031 Y131.223 E24.23263
G1 X91.999 Y130.292 E24.30197
G1 X91.068 Y129.333 E24.36865
G1 X90.269 Y128.395 E24.43013
G1 X89.532 Y127.406 E24.49166
G1 X88.861 Y126.373 E24.55312
G1 X88.258 Y125.297 E24.61465
G1 X87.867 Y124.493 E24.65926
G1 X87.445 Y123.743 E24.70219
G1 X86.911 Y122.632 E24.76369
G1 X86.45 Y121.489 E24.82518
G1 X86.24 Y120.905 E24.85614
G1 X85.653 Y119.084 E24.95159
G1 X85.299 Y117.767 E25.01963
G1 X85.08 Y116.696 E25.07417
G1 X84.858 Y115.411 E25.13923
G1 X84.752 Y114.845 E25.16796
G1 X84.603 Y113.622 E25.22942
G1 X84.538 Y112.521 E25.28445
G1 X84.451 Y109.651 E25.4277
G1 X84.453 Y108.418 E25.48921
G1 X84.536 Y107.188 E25.55072
G1 X84.621 Y106.496 E25.5855
G1 X84.721 Y105.54 E25.63346
G1 X84.888 Y104.319 E25.69494
G1 X85.135 Y103.111 E25.75645
G1 X85.372 Y102.289 E25.79914
G1 X85.408 Y102.086 E25.80942
G1 X85.676 Y101.002 E25.86513
G1 X85.862 Y100.103 E25.91093
G1 X85.912 Y99.923 E25.92025
G1 X86.034 Y99.229 E25.95541
G1 X86.326 Y98.031 E26.01692
G1 X86.694 Y96.855 E26.0784
G1 X87.289 Y95.336 E26.15979
G1 X87.925 Y93.998 E26.2337
G1 X88.524 Y92.92 E26.29523
G1 X89.192 Y91.884 E26.35673
G1 X89.926 Y90.894 E26.41821
G1 X90.722 Y89.953 E26.4797
G1 X91.578 Y89.066 E26.5412
G0 F2400 X91.912 Y89.299
G1 F1200 X92.471 Y88.795 E26.57875
G1 X92.611 Y88.641 E26.58914
G1 X93.489 Y87.794 E26.65
G1 X94.42 Y87.006 E26.71085
G1 X95.401 Y86.282 E26.77168
G1 X96.428 Y85.623 E26.83256
G1 X98.12 Y84.72 E26.92824
G1 X99.435 Y84.149 E26.99976
G1 X100.583 Y83.737 E27.06062
G1 X101.568 Y83.45 E27.1118
G1 X102.119 Y83.293 E27.14038
G1 X103.812 Y82.903 E27.22706
G1 X104.37 Y82.802 E27.25535
G1 X104.79 Y82.704 E27.27687
G1 X106.38 Y82.462 E27.35711
G1 X107.121 Y82.381 E27.3943
G1 X107.5 Y82.324 E27.41342
G1 X108.715 Y82.22 E27.47426
G1 X109.68 Y82.195 E27.52242
G1 X112.317 Y82.194 E27.65398
G1 X113.536 Y82.234 E27.71483
G1 X114.75 Y82.353 E27.77568
G1 X114.996 Y82.393 E27.78812
G1 X115.596 Y82.457 E27.81822
G1 X116.804 Y82.626 E27.87907
G1 X117.682 Y82.808 E27.92381
G1 X118.169 Y82.896 E27.9485
G1 X119.361 Y83.151 E28.00931
G1 X120.022 Y83.339 E28.0436
G1 X120.43 Y83.445 E28.06463
G1 X121.599 Y83.792 E28.12547
G1 X122.743 Y84.214 E28.1863
G1 X123.857 Y84.703 E28.247
G1 X125.088 Y85.335 E28.31603
G1 X126.134 Y85.962 E28.37688
G1 X127.137 Y86.656 E28.43773
G1 X128.092 Y87.414 E28.49856
G1 X128.996 Y88.233 E28.55941
G1 X129.41 Y88.674 E28.58959
G1 X130.07 Y89.266 E28.63382
G1 X130.922 Y90.139 E28.69468
G1 X131.715 Y91.066 E28.75554
G1 X132.446 Y92.042 E28.81638
G1 X133.111 Y93.064 E28.87721
G1 X133.708 Y94.128 E28.93808
G1 X134.364 Y95.509 E29.01436
G1 X134.901 Y96.87 E29.08735
G1 X135.273 Y98.031 E29.14817
G1 X135.569 Y99.215 E29.20906
G1 X135.709 Y99.998 E29.24874
G1 X135.736 Y100.092 E29.25362
G1 X135.988 Y101.274 E29.31392
