;FLAVOR:Marlin
;TIME:2305
;Filament used: 0.750057m
;Layer height: 0.2
;MINX:86.255
;MINY:87.72
;MINZ:0.3
;MAXX:135.833
;MAXY:136.086
;MAXZ:27.5
;Generated with Cura_SteamEngine 5.2.1
M140 S75
M105
M190 S75
M104 S210
M105
M109 S210
M82 ;absolute extrusion mode
G28 ;Home
G1 Z15.0 F6000 ;Move the platform down 15mm
;Prime the extruder
G92 E0
G1 F200 E3
G92 E0
G92 E0
G92 E0
G1 F1500 E-6.5
;LAYER_COUNT:137
;LAYER:0
M107
G0 F2880 X94.032 Y93.903 Z0.3
;TYPE:SKIRT
G1 F1500 E0
G1 F1200 X94.958 Y93.05 E0.06281
G1 X95.936 Y92.259 E0.12557
G1 X96.963 Y91.531 E0.18837
G1 X98.279 Y90.722 E0.26544
G1 X99.575 Y90.04 E0.3385
G1 X100.723 Y89.525 E0.40128
G1 X101.902 Y89.084 E0.46408
G1 X103.106 Y88.72 E0.52683
G1 X104.331 Y88.432 E0.58961
G1 X105.572 Y88.223 E0.6524
G1 X106.681 Y88.108 E0.70802
G1 X106.889 Y88.068 E0.71859
G1 X107.418 Y87.99 E0.74527
G1 X108.668 Y87.846 E0.80804
G1 X110.919 Y87.733 E0.92049
G1 X111.57 Y87.72 E0.95297
G1 X112.828 Y87.735 E1.01574
G1 X114.083 Y87.83 E1.07853
G1 X115.329 Y88.004 E1.1413
G1 X116.48 Y88.233 E1.19984
G1 X117.823 Y88.581 E1.26906
G1 X119.019 Y88.974 E1.33187
G1 X119.464 Y89.126 E1.35533
G1 X120.673 Y89.475 E1.41811
G1 X121.858 Y89.9 E1.48092
G1 X123.013 Y90.399 E1.54369
G1 X124.134 Y90.971 E1.60647
G1 X125.216 Y91.613 E1.66924
G1 X126.256 Y92.322 E1.73204
G1 X127.248 Y93.096 E1.79481
G1 X128.19 Y93.931 E1.85761
G1 X129.076 Y94.824 E1.92037
G1 X129.837 Y95.684 E1.97766
G1 X130.629 Y96.662 E2.04045
G1 X131.358 Y97.688 E2.10324
G1 X132.019 Y98.758 E2.16599
G1 X132.612 Y99.868 E2.22877
G1 X133.133 Y101.014 E2.29158
G1 X133.58 Y102.19 E2.35435
G1 X133.603 Y102.266 E2.35831
G1 X133.891 Y102.831 E2.38995
G1 X134.388 Y103.987 E2.45272
G1 X134.812 Y105.172 E2.51551
G1 X135.159 Y106.381 E2.57827
G1 X135.429 Y107.611 E2.64109
G1 X135.607 Y108.697 E2.696
G1 X135.76 Y110.106 E2.7667
G1 X135.81 Y111.036 E2.81317
G1 X135.833 Y111.806 E2.8516
G1 X135.831 Y113.064 E2.91436
G1 X135.695 Y114.871 E3.00477
G1 X135.476 Y116.336 E3.07867
G1 X135.211 Y117.567 E3.14149
G1 X134.869 Y118.778 E3.20427
G1 X134.45 Y119.964 E3.26703
G1 X134.081 Y120.832 E3.31408
G1 X133.985 Y121.181 E3.33214
G1 X133.577 Y122.372 E3.39495
G1 X133.094 Y123.534 E3.45773
G1 X132.538 Y124.663 E3.52052
G1 X131.911 Y125.754 E3.5833
G1 X131.217 Y126.804 E3.64609
G1 X130.457 Y127.807 E3.70887
G1 X129.635 Y128.76 E3.77166
G1 X128.88 Y129.541 E3.82585
G1 X127.966 Y130.406 E3.88864
G1 X126.998 Y131.211 E3.95145
G1 X125.982 Y131.954 E4.01424
G1 X124.921 Y132.629 E4.07698
G1 X123.961 Y133.165 E4.13184
G1 X122.835 Y133.726 E4.1946
G1 X121.675 Y134.213 E4.25737
G1 X120.486 Y134.627 E4.32018
G1 X119.274 Y134.963 E4.38293
G1 X118.042 Y135.222 E4.44573
G1 X116.797 Y135.403 E4.5085
G1 X115.784 Y135.485 E4.5592
G1 X115.507 Y135.559 E4.57351
G1 X114.274 Y135.807 E4.63625
G1 X113.027 Y135.977 E4.69904
G1 X111.771 Y136.067 E4.76187
G1 X110.65 Y136.086 E4.8178
G1 X109.392 Y136.054 E4.88058
G1 X108.139 Y135.942 E4.94334
G1 X106.895 Y135.751 E5.00614
G1 X105.666 Y135.481 E5.06891
G1 X105.231 Y135.401 E5.09098
G1 X103.984 Y135.231 E5.15377
G1 X102.75 Y134.982 E5.21657
G1 X101.535 Y134.656 E5.27933
G1 X100.343 Y134.253 E5.34211
G1 X99.179 Y133.775 E5.40489
G1 X98.047 Y133.224 E5.4677
G1 X97.033 Y132.655 E5.52571
G1 X95.871 Y131.914 E5.59446
G1 X94.855 Y131.172 E5.65723
G1 X93.889 Y130.366 E5.72
G1 X92.975 Y129.5 E5.78281
G1 X92.119 Y128.578 E5.84558
G1 X91.405 Y127.72 E5.90127
G1 X90.642 Y126.72 E5.96402
G1 X89.944 Y125.673 E6.0268
G1 X89.314 Y124.583 E6.08961
G1 X88.754 Y123.456 E6.1524
G1 X88.267 Y122.296 E6.21516
G1 X87.855 Y121.107 E6.27794
G1 X87.801 Y120.911 E6.28809
G1 X87.541 Y120.272 E6.3225
G1 X87.143 Y119.078 E6.3853
G1 X86.821 Y117.862 E6.44805
G1 X86.578 Y116.627 E6.51085
G1 X86.44 Y115.63 E6.56106
G1 X86.378 Y115.08 E6.58868
G1 X86.276 Y113.826 E6.65145
G1 X86.255 Y112.567 E6.71427
G1 X86.348 Y110.369 E6.82402
G1 X86.479 Y109.117 E6.88683
G1 X86.739 Y107.64 E6.96165
G1 X86.861 Y107.073 E6.99058
G1 X87.165 Y105.852 E7.05336
G1 X87.545 Y104.652 E7.11616
G1 X88.001 Y103.479 E7.17894
G1 X88.531 Y102.338 E7.24171
G1 X89.132 Y101.232 E7.30451
G1 X89.608 Y100.476 E7.34908
G1 X89.767 Y100.079 E7.37042
G1 X90.309 Y98.943 E7.43321
G1 X90.922 Y97.845 E7.49595
G1 X91.604 Y96.787 E7.55875
G1 X92.352 Y95.775 E7.62153
G1 X93.162 Y94.812 E7.68431
G1 X94.032 Y93.903 E7.74709
G0 F2880 X94.485 Y94.021
G1 F1200 X95.412 Y93.189 E7.80923
G1 X96.391 Y92.419 E7.87137
G1 X97.417 Y91.712 E7.93353
G1 X98.499 Y91.058 E7.99661
G1 X99.761 Y90.394 E8.06775
G1 X100.899 Y89.886 E8.12993
G1 X102.066 Y89.451 E8.19206
G1 X103.259 Y89.093 E8.25421
G1 X104.472 Y88.812 E8.31632
G1 X105.701 Y88.609 E8.37847
G1 X106.709 Y88.509 E8.42901
G1 X106.947 Y88.464 E8.44109
G1 X107.476 Y88.386 E8.46777
G1 X108.714 Y88.243 E8.52994
G1 X110.046 Y88.171 E8.59649
G1 X110.927 Y88.133 E8.64049
G1 X111.578 Y88.12 E8.67297
G1 X112.823 Y88.135 E8.73509
G1 X114.065 Y88.23 E8.79724
G1 X115.299 Y88.405 E8.85942
G1 X116.396 Y88.623 E8.91522
G1 X117.723 Y88.969 E8.98363
G1 X118.906 Y89.359 E9.04578
G1 X119.228 Y89.488 E9.06308
G1 X119.61 Y89.578 E9.08266
G1 X120.802 Y89.939 E9.1448
G1 X121.969 Y90.376 E9.20697
G1 X123.105 Y90.887 E9.26912
G1 X124.206 Y91.47 E9.33127
G1 X125.267 Y92.122 E9.3934
G1 X126.284 Y92.841 E9.45554
G1 X127.253 Y93.624 E9.51769
G1 X128.17 Y94.467 E9.57983
G1 X129.386 Y95.764 E9.66853
G1 X130.318 Y96.914 E9.74238
G1 X131.038 Y97.93 E9.80451
G1 X131.692 Y98.991 E9.86669
G1 X132.276 Y100.091 E9.92882
G1 X132.788 Y101.226 E9.99094
G1 X133.229 Y102.401 E10.05356
G1 X133.691 Y103.358 E10.10658
G1 X134.161 Y104.511 E10.1687
G1 X134.555 Y105.693 E10.23086
G1 X134.872 Y106.898 E10.29302
G1 X135.204 Y108.687 E10.3838
G1 X135.363 Y110.149 E10.45717
G1 X135.41 Y111.048 E10.50208
G1 X135.433 Y111.818 E10.54051
G1 X135.431 Y113.063 E10.60262
G1 X135.297 Y114.825 E10.69078
G1 X135.08 Y116.277 E10.76403
G1 X134.817 Y117.495 E10.8262
G1 X134.476 Y118.693 E10.88834
G1 X134.059 Y119.867 E10.95049
G1 X133.698 Y120.707 E10.99611
G1 X133.538 Y121.269 E11.02526
G1 X133.121 Y122.443 E11.08742
G1 X132.629 Y123.587 E11.14955
G1 X132.064 Y124.697 E11.21169
G1 X131.43 Y125.769 E11.27382
G1 X130.728 Y126.798 E11.33597
G1 X129.961 Y127.78 E11.39813
G1 X128.739 Y129.125 E11.48879
G1 X127.691 Y130.116 E11.56075
G1 X126.732 Y130.912 E11.62293
G1 X125.725 Y131.644 E11.68504
G1 X124.673 Y132.311 E11.74719
G1 X123.772 Y132.813 E11.79864
G1 X122.657 Y133.367 E11.86076
G1 X121.508 Y133.849 E11.92292
G1 X120.331 Y134.256 E11.98506
G1 X119.13 Y134.587 E12.04721
G1 X117.91 Y134.84 E12.10937
G1 X116.677 Y135.014 E12.17149
G1 X115.721 Y135.086 E12.21932
G1 X115.366 Y135.181 E12.23766
G1 X114.145 Y135.423 E12.29976
G1 X112.91 Y135.587 E12.36191
G1 X110.92 Y135.693 E12.46134
G1 X109.402 Y135.654 E12.53709
G1 X108.162 Y135.542 E12.59921
G1 X106.931 Y135.351 E12.66136
G1 X105.715 Y135.081 E12.7235
G1 X105.499 Y135.018 E12.73473
G1 X105.247 Y135 E12.74733
G1 X104.013 Y134.83 E12.80948
G1 X102.793 Y134.581 E12.8716
G1 X101.591 Y134.255 E12.93373
G1 X100.412 Y133.851 E12.99591
G1 X99.262 Y133.373 E13.05804
G1 X98.145 Y132.822 E13.12018
G1 X97.136 Y132.247 E13.17812
G1 X96.086 Y131.577 E13.24026
G1 X95.082 Y130.841 E13.30237
G1 X94.126 Y130.042 E13.36453
G1 X93.224 Y129.183 E13.42667
G1 X91.88 Y127.683 E13.52715
G1 X90.96 Y126.477 E13.60283
G1 X90.27 Y125.44 E13.66497
G1 X89.648 Y124.361 E13.72711
G1 X89.097 Y123.244 E13.78925
G1 X88.618 Y122.094 E13.8514
G1 X88.214 Y120.915 E13.91358
G1 X88.184 Y120.803 E13.91936
G1 X87.809 Y119.836 E13.9711
G1 X87.435 Y118.648 E14.03324
G1 X87.137 Y117.438 E14.09541
G1 X86.918 Y116.212 E14.15755
G1 X86.775 Y115.035 E14.2167
G1 X86.675 Y113.794 E14.27881
G1 X86.656 Y112.548 E14.34098
G1 X86.749 Y110.373 E14.44959
G1 X86.881 Y109.134 E14.51176
G1 X87.13 Y107.724 E14.58319
G1 X87.252 Y107.157 E14.61213
G1 X87.553 Y105.948 E14.67429
G1 X87.931 Y104.762 E14.73639
G1 X88.384 Y103.601 E14.79856
G1 X88.911 Y102.473 E14.86068
G1 X89.509 Y101.38 E14.92284
G1 X89.965 Y100.66 E14.96536
G1 X90.2 Y100.09 E14.99611
G1 X90.747 Y98.97 E15.0583
G1 X91.364 Y97.888 E15.12044
G1 X92.049 Y96.848 E15.18257
G1 X92.8 Y95.854 E15.24472
G1 X93.613 Y94.911 E15.30684
G1 X94.485 Y94.021 E15.369
G0 F2880 X94.938 Y94.143
G1 F1200 X95.866 Y93.332 E15.43049
G1 X96.845 Y92.583 E15.49199
G1 X97.871 Y91.899 E15.55351
G1 X98.724 Y91.392 E15.60301
G1 X99.948 Y90.748 E15.67202
G1 X101.074 Y90.246 E15.73352
G1 X102.23 Y89.818 E15.79502
G1 X103.411 Y89.466 E15.8565
G1 X104.613 Y89.192 E15.91801
G1 X105.83 Y88.996 E15.97951
G1 X106.731 Y88.91 E16.02466
G1 X107.005 Y88.859 E16.03857
G1 X107.534 Y88.781 E16.06524
G1 X108.759 Y88.641 E16.12676
G1 X109.99 Y88.581 E16.18825
G1 X110.147 Y88.583 E16.19608
G1 X110.935 Y88.533 E16.23547
G1 X111.586 Y88.52 E16.26796
G1 X112.818 Y88.535 E16.32943
G1 X114.047 Y88.63 E16.39092
G1 X115.268 Y88.805 E16.45246
G1 X116.429 Y89.046 E16.51162
G1 X117.622 Y89.356 E16.57312
G1 X118.792 Y89.743 E16.6346
G1 X119.115 Y89.874 E16.65199
G1 X119.753 Y90.032 E16.68478
G1 X120.928 Y90.406 E16.7463
G1 X122.076 Y90.855 E16.8078
G1 X123.192 Y91.377 E16.86926
G1 X124.272 Y91.971 E16.93076
G1 X125.312 Y92.634 E16.99229
G1 X126.306 Y93.363 E17.05379
G1 X127.251 Y94.154 E17.11527
G1 X128.143 Y95.006 E17.17681
G1 X129.102 Y96.047 E17.24742
G1 X130.007 Y97.166 E17.31922
G1 X130.719 Y98.172 E17.38071
G1 X131.364 Y99.223 E17.44223
G1 X131.939 Y100.313 E17.50372
G1 X132.442 Y101.438 E17.5652
G1 X132.859 Y102.559 E17.62487
G1 X132.969 Y102.763 E17.63643
G1 X133.483 Y103.884 E17.69796
G1 X133.923 Y105.035 E17.75943
G1 X134.287 Y106.213 E17.82095
G1 X134.575 Y107.412 E17.88247
G1 X134.811 Y108.776 E17.95153
G1 X134.965 Y110.193 E18.02264
G1 X135.011 Y111.06 E18.06595
G1 X135.034 Y111.83 E18.10439
G1 X135.03 Y113.062 E18.16585
G1 X134.9 Y114.781 E18.25186
G1 X134.684 Y116.218 E18.32436
G1 X134.423 Y117.423 E18.38587
G1 X134.083 Y118.608 E18.44737
G1 X133.668 Y119.768 E18.50884
G1 X133.327 Y120.556 E18.55167
G1 X133.09 Y121.354 E18.5932
G1 X132.663 Y122.51 E18.65469
G1 X132.162 Y123.636 E18.71617
G1 X131.589 Y124.728 E18.7777
G1 X130.947 Y125.78 E18.83918
G1 X130.238 Y126.788 E18.90067
G1 X129.464 Y127.748 E18.96219
G1 X128.442 Y128.855 E19.03736
G1 X127.416 Y129.825 E19.1078
G1 X126.467 Y130.612 E19.16931
G1 X125.469 Y131.335 E19.23079
G1 X124.426 Y131.993 E19.29231
G1 X123.583 Y132.46 E19.34039
G1 X122.478 Y133.009 E19.40195
G1 X121.341 Y133.484 E19.46343
G1 X120.175 Y133.885 E19.52494
G1 X118.986 Y134.21 E19.58644
G1 X117.778 Y134.456 E19.64794
G1 X116.557 Y134.624 E19.70943
G1 X115.66 Y134.688 E19.7543
G1 X115.226 Y134.803 E19.7767
G1 X114.016 Y135.039 E19.8382
G1 X112.794 Y135.196 E19.89967
G1 X110.912 Y135.293 E19.99369
G1 X109.413 Y135.254 E20.0685
G1 X108.185 Y135.142 E20.13002
G1 X106.967 Y134.951 E20.19153
G1 X105.764 Y134.681 E20.25304
G1 X105.564 Y134.622 E20.26344
G1 X105.263 Y134.6 E20.2785
G1 X104.043 Y134.43 E20.33995
G1 X102.835 Y134.18 E20.4015
G1 X101.647 Y133.853 E20.46297
G1 X100.482 Y133.45 E20.52447
G1 X99.346 Y132.972 E20.58596
G1 X98.243 Y132.421 E20.64747
G1 X97.341 Y131.903 E20.69937
G1 X96.302 Y131.24 E20.76086
G1 X95.308 Y130.51 E20.82238
G1 X94.364 Y129.718 E20.88386
G1 X93.473 Y128.866 E20.94537
G1 X92.186 Y127.425 E21.04176
G1 X91.279 Y126.234 E21.11644
G1 X90.597 Y125.207 E21.17795
G1 X89.983 Y124.138 E21.23945
G1 X89.44 Y123.032 E21.30092
G1 X88.97 Y121.892 E21.36244
G1 X88.559 Y120.668 E21.42686
G1 X88.51 Y120.558 E21.43287
G1 X88.084 Y119.401 E21.49438
G1 X87.733 Y118.219 E21.55589
G1 X87.46 Y117.017 E21.61739
G1 X87.235 Y115.54 E21.69193
G1 X87.173 Y114.99 E21.71954
G1 X87.074 Y113.762 E21.781
G1 X87.056 Y112.529 E21.84252
G1 X87.102 Y111.827 E21.87762
G1 X87.097 Y111.608 E21.88855
G1 X87.15 Y110.377 E21.95002
G1 X87.282 Y109.151 E22.01154
G1 X87.521 Y107.808 E22.0796
G1 X87.643 Y107.241 E22.10853
G1 X87.941 Y106.045 E22.17003
G1 X88.317 Y104.871 E22.23153
G1 X88.767 Y103.724 E22.293
G1 X89.291 Y102.608 E22.35451
G1 X89.886 Y101.528 E22.41602
G1 X90.316 Y100.855 E22.45587
G1 X90.634 Y100.102 E22.49665
G1 X91.185 Y98.999 E22.55816
G1 X91.806 Y97.935 E22.61963
G1 X92.495 Y96.913 E22.68112
G1 X93.249 Y95.937 E22.74265
G1 X94.064 Y95.013 E22.80412
G1 X94.938 Y94.143 E22.86564
G0 F2880 X95.391 Y94.27
G1 F1200 X96.321 Y93.48 E22.92652
G1 X97.3 Y92.752 E22.98739
G1 X98.85 Y91.777 E23.07874
G1 X100.134 Y91.102 E23.15111
G1 X101.248 Y90.607 E23.21193
G1 X102.393 Y90.186 E23.2728
G1 X103.563 Y89.84 E23.33367
G1 X104.753 Y89.572 E23.39452
G1 X105.958 Y89.383 E23.45537
G1 X106.764 Y89.31 E23.49575
G1 X107.064 Y89.255 E23.51097
G1 X107.593 Y89.177 E23.53764
G1 X108.805 Y89.039 E23.5985
G1 X110.943 Y88.933 E23.7053
G1 X111.594 Y88.92 E23.73778
G1 X112.813 Y88.935 E23.7986
G1 X114.029 Y89.031 E23.85946
G1 X115.236 Y89.206 E23.92031
G1 X116.341 Y89.436 E23.97662
G1 X117.521 Y89.743 E24.03745
G1 X118.679 Y90.128 E24.09833
G1 X118.974 Y90.248 E24.11422
G1 X119.892 Y90.489 E24.16157
G1 X121.049 Y90.875 E24.22242
G1 X122.178 Y91.336 E24.28326
G1 X123.275 Y91.871 E24.34415
G1 X124.334 Y92.476 E24.405
G1 X125.351 Y93.149 E24.46584
G1 X126.322 Y93.887 E24.52669
G1 X127.242 Y94.687 E24.58751
G1 X128.108 Y95.546 E24.64837
G1 X128.824 Y96.339 E24.70167
G1 X129.696 Y97.417 E24.77085
G1 X130.399 Y98.414 E24.83171
G1 X131.035 Y99.454 E24.89253
G1 X131.602 Y100.535 E24.95343
G1 X132.097 Y101.649 E25.01424
G1 X132.496 Y102.737 E25.07206
G1 X132.78 Y103.29 E25.10307
G1 X133.265 Y104.409 E25.16392
G1 X133.675 Y105.558 E25.22478
G1 X134.01 Y106.731 E25.28564
G1 X134.266 Y107.923 E25.34647
G1 X134.42 Y108.876 E25.39463
G1 X134.567 Y110.236 E25.46288
G1 X134.611 Y111.072 E25.50464
G1 X134.634 Y111.842 E25.54308
G1 X134.63 Y113.061 E25.60389
G1 X134.502 Y114.737 E25.68775
G1 X134.288 Y116.158 E25.75945
G1 X134.028 Y117.35 E25.82031
G1 X133.691 Y118.522 E25.88115
G1 X133.277 Y119.669 E25.94199
G1 X132.964 Y120.385 E25.98098
G1 X132.64 Y121.435 E26.0358
G1 X132.204 Y122.574 E26.09664
G1 X131.694 Y123.682 E26.1575
G1 X131.112 Y124.754 E26.21835
G1 X130.462 Y125.786 E26.2792
G1 X129.745 Y126.773 E26.34007
G1 X128.966 Y127.711 E26.4009
G1 X128.141 Y128.59 E26.46104
G1 X127.141 Y129.534 E26.52965
G1 X126.201 Y130.311 E26.59049
G1 X125.212 Y131.026 E26.65138
G1 X124.179 Y131.673 E26.71219
G1 X123.393 Y132.108 E26.75701
G1 X122.301 Y132.65 E26.81783
G1 X121.175 Y133.12 E26.8787
G1 X120.021 Y133.514 E26.93954
G1 X118.843 Y133.833 E27.00043
G1 X117.647 Y134.073 E27.06128
G1 X116.439 Y134.234 E27.12208
G1 X115.597 Y134.291 E27.16419
G1 X115.086 Y134.424 E27.19053
G1 X113.889 Y134.654 E27.25134
G1 X112.678 Y134.805 E27.31223
G1 X110.903 Y134.893 E27.40089
G1 X109.423 Y134.854 E27.47475
G1 X108.209 Y134.742 E27.53558
G1 X107.004 Y134.55 E27.59645
G1 X105.814 Y134.281 E27.65732
G1 X105.626 Y134.225 E27.66711
G1 X105.28 Y134.199 E27.68442
G1 X104.073 Y134.029 E27.74523
G1 X102.879 Y133.779 E27.80609
G1 X101.704 Y133.452 E27.86694
G1 X100.553 Y133.049 E27.92778
G1 X99.431 Y132.571 E27.98863
G1 X98.342 Y132.02 E28.04952
G1 X97.545 Y131.559 E28.09545
G1 X96.517 Y130.902 E28.15632
G1 X95.535 Y130.18 E28.21713
G1 X94.602 Y129.394 E28.27799
G1 X93.723 Y128.549 E28.33882
G1 X92.494 Y127.17 E28.43098
G1 X91.597 Y125.992 E28.50485
G1 X90.924 Y124.975 E28.56569
G1 X90.318 Y123.916 E28.62656
G1 X89.784 Y122.82 E28.68739
G1 X89.322 Y121.691 E28.74824
G1 X88.923 Y120.487 E28.81153
G1 X88.766 Y120.119 E28.83149
G1 X88.364 Y118.968 E28.89231
G1 X88.038 Y117.793 E28.95315
G1 X87.79 Y116.599 E29.01399
G1 X87.632 Y115.496 E29.06958
G1 X87.57 Y114.946 E29.09719
G1 X87.473 Y113.73 E29.15805
G1 X87.456 Y112.51 E29.21892
G1 X87.502 Y111.812 E29.25382
G1 X87.497 Y111.599 E29.26445
G1 X87.551 Y110.381 E29.32528
G1 X87.684 Y109.169 E29.38611
G1 X87.912 Y107.892 E29.45082
G1 X88.034 Y107.325 E29.47976
G1 X88.33 Y106.142 E29.5406
G1 X88.702 Y104.981 E29.60142
G1 X89.15 Y103.846 E29.6623
G1 X89.671 Y102.743 E29.72316
G1 X90.263 Y101.677 E29.78399
G1 X90.662 Y101.058 E29.82073
G1 X91.068 Y100.117 E29.87186
G1 X91.623 Y99.031 E29.93271
G1 X92.248 Y97.984 E29.99354
G1 X92.941 Y96.98 E30.05441
G1 X93.698 Y96.024 E30.11524
G1 X94.516 Y95.119 E30.1761
